!!!!SEGMENT: pl-wtm--r-1227--013_lodwigowski-edward-stefan--juz-tyle-razy-slonce.krn
!!!cenid: 18xx:1953
!!!COM: Łodwigowski, Edward Stefan
!!!COM-rismID:
!!!CDT: 1815/08/14-1895/11/12
!!!CNT: Polish
!!!OTL: Już tyle razy słońce
!!!PDT:
!!!AGN:
!!!SMS-siglum: PL-Wtm
!!!SMS-shelfmark: R 1227
!!!SMS-shelfwork: 013 W
!!!SMS-variant:
!!!SMS-altvar:
!!!NIFC-rismSourceID: 1001084112
!!!NIFC-islandoraID:
!!!URL-pdf-islandora:
!!!URL-scan:
!!!ONB-nifc: UWAGA: No. 85
!!!OMD: No 85. Andante
!!!AIN: 1 forte
!!!key:
**kern	**fing	**kern	**fing	**dynam
*part1	*	*part1	*	*part1
*staff2	*	*staff1	*	*
*Iforte	*	*Iforte	*	*
*I"Fortepian	*	*I"Fortepian	*	*
*clefF4	*	*clefG2	*	*
*k[]	*	*k[]	*	*
*C:	*	*C:	*	*
*M2/4	*	*M2/4	*	*
*>[A,B,B]	*>[A,B,B]	*>[A,B,B]	*>[A,B,B]	*>[A,B,B]
=1	=1	=1	=1	=1
*all\right	*	*all\right	*	*
*>A	*>A	*>A	*>A	*>A
*^	*	*	*	*
!	!	!	!LO:TX:a:i:t=Już tyle razy słońce wracało. P.L.P.	!	!
4rGGyy	16C\LL	.	(4ee 4cc\	1 3	p
.	16G\	.	.	.	.
.	16E\	.	.	.	.
.	16G\JJ	.	.	.	.
4BB/	8BB\L	.	16ggLL 16ee\	.	.
.	.	.	16ff 16dd\	.	.
.	8G\J	.	16ee 16cc\	.	.
.	.	.	16ffJJ 16dd\	.	.
*v	*v	*	*	*	*
=2	=2	=2	=2	=2
(16C\LL	.	8.ggL 8.ee\	.	.
16G\	.	.	.	.
16E\	.	.	.	.
16G\JJ)	.	16eeJk 16cc\	.	.
(16C\LL	.	8gg 8ee\)	.	.
16G\	1	.	.	.
16E\	2	8r	.	.
16C\JJ)	3	.	.	.
=3	=3	=3	=3	=3
(16GG\LL	5	(8.ffL 8.dd\	1 4	.
16BB\	4	.	.	.
16D\	2	.	.	.
16G\JJ)	1	16eeJk 16cc#X\	2 3	.
(16GG\LL	.	8ffL 8dd\	2 4	.
16BB\	.	.	.	.
16D\	.	8ggJ 8b\)	1 5	.
16G\JJ)	.	.	.	.
=4	=4	=4	=4	=4
(16C\LL	.	(4ee 4cc^<\	2 4	<
16D\	.	.	.	.
16E\	.	.	.	.
16F\JJ	.	.	.	.
8G\L)	.	8dd 8b\)	.	[
8GG\J	.	8r	.	.
!!LO:LB:g=original
=5	=5	=5	=5	=5
16C\LL	.	(4ee 4cc\	1 2	.
16G\	.	.	.	.
16E\	.	.	.	.
16G\JJ	.	.	.	.
16BB\LL	.	16ggLL 16ee\	2 4	.
16G\	.	16ff 16dd\	.	.
16GG\	.	16ee 16cc\	.	.
16G\JJ	.	16ffJJ 16dd\	.	<
=6	=6	=6	=6	=6
16C\LL	.	8.ggL 8.ee\	.	.
16G\	.	.	.	.
16E\	.	.	.	.
16C\JJ	.	16aaJk 16ff\)	.	.
!LO:TX:t=P:problem=mixed beam	!	!	!	!
8F\L	.	8aa 8ff\	.	[
8FF/J	.	8r	.	.
=7	=7	=7	=7	=7
*	*below	*	*	*
16GG/LL	5	8.ccL 8.e/	1 4	>
16C/	3	.	.	.
16E/	2	.	.	.
16G/JJ	1	16eeJk 16g/	2 5	.
16GG/LL	5	8.ddL 8.f/	1 5	.
16BB/	4	.	.	.
16D/	2	.	.	.
16G/JJ	1	16bJk 16d/	4	]]
=8	=8	=8	=8	=8
*	*above	*	*	*
16C\LL	5	4cc 4e/	5	.
16G\	2	.	.	.
16E\	4	.	.	.
16G\JJ	.	.	.	.
8c\L	.	4r	.	.
8C\J	.	.	.	.
=9!|:	=9!|:	=9!|:	=9!|:	=9!|:
*>B	*>B	*>B	*>B	*>B
16GG\LL	.	(8.ggL 8.b\	5	.
16G\	1	.	.	.
16F#X\	2	.	.	.
16G\JJ	1	16ddJk 16b\)	2	.
16GG\LL	.	(8.ddL 8.b\	.	.
16G\	.	.	.	.
16F#\	.	.	.	.
16G\JJ	.	16ffnJk 16dd\)	4	.
=10	=10	=10	=10	=10
16C\LL	.	(8.ffL 8.dd\	.	.
16G\	.	.	.	.
16F#X\	.	.	.	.
16G\JJ	.	16eeJk 16cc\)	.	.
16C\LL	.	4ee 4cc\	.	.
16G\	.	.	.	.
16F#\	.	.	.	.
16G\JJ	.	.	.	.
!!LO:LB:g=original
=11	=11	=11	=11	=11
16C\LL	.	(4gg 4ee\	2 4	.
16c\	.	.	.	.
16B\	.	.	.	.
16c\JJ	.	.	.	.
16B\LL	.	16aaLL 16ff\	.	.
16c\	.	16gg 16ee\	.	.
16F\	3	16ff 16dd\	.	.
16F#X\JJ	2	16eeJJ 16cc\)	1 2	.
=12	=12	=12	=12	=12
16G\LL	1	(4ee 4cc\	2 4	.
16GG\	5	.	.	.
16C\	3	.	.	.
16E\JJ	2	.	.	.
16G\LL	1	8dd 8b\)	.	.
16F\	.	.	.	.
16E\	.	8r	.	.
16D\JJ	.	.	.	.
=13	=13	=13	=13	=13
16C\LL	.	(4ee 4cc\	1 2	.
16G\	.	.	.	.
16E\	.	.	.	.
16G\JJ	.	.	.	.
16BB\LL	.	16ggLL 16ee\	2 4	.
16G\	.	16ff 16dd\	.	.
16GG\	.	16ee 16cc\	.	.
16G\JJ	.	16ffJJ 16dd\	.	<
=14	=14	=14	=14	=14
16C\LL	.	8.ggL 8.ee\	.	.
16G\	.	.	.	.
16E\	.	.	.	.
16C\JJ	.	16aaJk 16ff\)	.	.
!LO:TX:t=P:problem=mixed beam	!	!	!	!
8F\L	.	8aa 8ff\	.	[
8FF/J	.	8r	.	.
=15	=15	=15	=15	=15
16GG/LL	.	8.ccL 8.e/	.	.
16C/	.	.	.	>
16E/	.	.	.	.
16G/JJ	.	16eeJk 16g/	.	.
16GG/LL	.	8.ddL 8.f/	.	.
16BB/	.	.	.	.
16D/	.	.	.	.
16G/JJ	.	16bJk 16d/	.	]
=16	=16	=16	=16	=16
16C/LL	.	[4cc [4e/	.	.
16E/	.	.	.	.
16G/	.	.	.	.
16E/JJ	.	.	.	.
8C/	.	8cc] 8e/]	.	.
8r	.	8r	.	.
==:|!	==:|!	==:|!	==:|!	==:|!
*-	*-	*-	*-	*-
!!!system-decoration: {s1,s2}
!!!RDF**kern: < = below
!!!ENC: Marta Lawrence
!!!ENC: 2021-05-02
!!!ENC: Marcin Jachim
!!!END: 2021-04-17
